app/assets/images/tlf-logo.svg

<svg fill="none" height="749" viewBox="0 0 2277 749" width="2277" xmlns="http://www.w3.org/2000/svg" xmlns:xlink="http://www.w3.org/1999/xlink"><clipPath id="a"><path d="m0 0h2277v749h-2277z"/></clipPath><g clip-path="url(#a)" fill="#000"><path d="m874.823 2.73267h131.387v13.43603h-57.839v152.3503h-15.712v-152.1226h-57.836z"/><path d="m1021.69 2.73267h15.71v71.96233h98.37v-71.96233h15.71v165.78633h-15.71v-80.1603h-98.37v80.1603h-15.71z"/><path d="m1185.18 2.73267h114.53v13.43603h-98.59v59.8926h92.22v13.436h-92.45v65.3587h99.73v13.663h-115.67z"/><path d="m874.823 579.798h105.198v13.436h-89.259v59.892h79.24v13.436h-79.467v79.022h-15.712z"/><path d="m1068.82 576.382c51.92 0 77.88 40.763 77.88 86.309s-25.96 86.309-77.88 86.309c-52.14 0-78.325-40.763-78.325-86.309s25.955-86.309 78.325-86.309zm0 159.182c43.72 0 62.17-36.664 62.17-72.873s-18.68-72.873-62.17-72.873c-43.94 0-62.39 36.664-62.39 72.873s18.45 72.873 62.39 72.873z"/><path d="m1169.69 579.798h15.72v102.705c0 38.259 17.76 53.061 48.5 53.061 30.96 0 48.72-14.802 48.72-53.061v-102.705h15.72v106.121c0 34.16-18.45 63.081-64.44 63.081-45.77 0-64.22-28.921-64.22-63.081z"/><path d="m1330.22 579.798h17.54l96.54 140.281h.46v-140.281h15.71v165.786h-17.53l-96.55-140.281h-.46v140.281h-15.71z"/><path d="m1493.94 579.798h57.38c50.09 1.138 76.05 28.01 76.05 82.893s-25.96 81.754-76.05 82.893h-57.38zm15.71 152.35h33.7c47.59 0 68.31-19.812 68.31-69.457s-20.72-69.457-68.31-69.457h-33.7z"/><path d="m1701.37 579.798h17.54l64.89 165.786h-16.85l-20.26-51.467h-75.37l-20.04 51.467h-16.85zm-25.04 100.883h65.12l-32.11-84.942z"/><path d="m1765.36 579.798h131.38v13.436h-57.83v152.35h-15.72v-152.35h-57.83z"/><path d="m1913.59 579.798h15.71v165.786h-15.71z"/><path d="m2033.36 576.382c51.92 0 77.87 40.763 77.87 86.309s-25.95 86.309-77.87 86.309c-52.14 0-78.33-40.763-78.33-86.309s25.96-86.309 78.33-86.309zm0 159.182c43.72 0 62.16-36.664 62.16-72.873s-18.67-72.873-62.16-72.873c-43.95 0-62.39 36.664-62.39 72.873s18.44 72.873 62.39 72.873z"/><path d="m2135.6 579.798h17.53l96.55 140.281h.45v-140.281h15.71v165.786h-17.53l-96.54-140.281h-.46v140.281h-15.71z"/><path d="m874.823 217.937h91.308v220.441h131.159v76.061h-222.694z"/><path d="m1157.17 217.937h91.31v296.502h-91.31z"/><path d="m1316.56 217.937h93.36l86.3 158.726h.91v-158.726h86.3v296.502h-88.81l-90.85-161.915h-.91v161.915h-86.3z"/><path d="m1921.1 399.892c0 82.665-43.49 121.607-135.02 121.607-91.31 0-135.48-38.942-135.48-121.607v-181.955h91.3v161.459c0 29.833-.45 68.091 44.41 68.091 43.26 0 43.26-38.258 43.26-68.091v-161.459h91.31v181.955z"/><path d="m2066.38 356.623-97.69-138.686h107.25l44.86 80.616 43.94-80.616h101.33l-94.95 139.597 105.88 156.905h-109.98l-50.55-88.358-52.37 88.358h-104.74z"/><path d="m149.371 596.422v-298.097h-149.371v447.259h447.43v-149.162z"/><path d="m745.262 0h-745.262v223.63h149.143v-73.784h447.203v446.576h-74.458v149.162h223.374z"/></g></svg>

<svg width="2277" height="749" viewBox="0 0 2277 749" fill="none" xmlns="http://www.w3.org/2000/svg">
<g clip-path="url(#clip0_864_85)">
<path d="M874.823 2.73267H1006.21V16.1687H948.371V168.519H932.659V16.3964H874.823V2.73267Z" fill="black"/>
<path d="M1021.69 2.73267H1037.4V74.695H1135.77V2.73267H1151.48V168.519H1135.77V88.3587H1037.4V168.519H1021.69V2.73267Z" fill="black"/>
<path d="M1185.18 2.73267H1299.71V16.1687H1201.12V76.0613H1293.34V89.4973H1200.89V154.856H1300.62V168.519H1184.95L1185.18 2.73267Z" fill="black"/>
<path d="M874.823 579.798H980.021V593.234H890.762V653.126H970.002V666.562H890.535V745.584H874.823V579.798Z" fill="black"/>
<path d="M1068.82 576.382C1120.74 576.382 1146.7 617.145 1146.7 662.691C1146.7 708.237 1120.74 749 1068.82 749C1016.68 749 990.495 708.237 990.495 662.691C990.495 617.145 1016.45 576.382 1068.82 576.382ZM1068.82 735.564C1112.54 735.564 1130.99 698.9 1130.99 662.691C1130.99 626.482 1112.31 589.818 1068.82 589.818C1024.88 589.818 1006.43 626.482 1006.43 662.691C1006.43 698.9 1024.88 735.564 1068.82 735.564Z" fill="black"/>
<path d="M1169.69 579.798H1185.41V682.503C1185.41 720.762 1203.17 735.564 1233.91 735.564C1264.87 735.564 1282.63 720.762 1282.63 682.503V579.798H1298.35V685.919C1298.35 720.079 1279.9 749 1233.91 749C1188.14 749 1169.69 720.079 1169.69 685.919V579.798Z" fill="black"/>
<path d="M1330.22 579.798H1347.76L1444.3 720.079H1444.76V579.798H1460.47V745.584H1442.94L1346.39 605.303H1345.93V745.584H1330.22V579.798Z" fill="black"/>
<path d="M1493.94 579.798H1551.32C1601.41 580.936 1627.37 607.808 1627.37 662.691C1627.37 717.574 1601.41 744.445 1551.32 745.584H1493.94V579.798ZM1509.65 732.148H1543.35C1590.94 732.148 1611.66 712.336 1611.66 662.691C1611.66 613.046 1590.94 593.234 1543.35 593.234H1509.65V732.148Z" fill="black"/>
<path d="M1701.37 579.798H1718.91L1783.8 745.584H1766.95L1746.69 694.117H1671.32L1651.28 745.584H1634.43L1701.37 579.798ZM1676.33 680.681H1741.45L1709.34 595.739L1676.33 680.681Z" fill="black"/>
<path d="M1765.36 579.798H1896.74V593.234H1838.91V745.584H1823.19V593.234H1765.36V579.798Z" fill="black"/>
<path d="M1913.59 579.798H1929.3V745.584H1913.59V579.798Z" fill="black"/>
<path d="M2033.36 576.382C2085.28 576.382 2111.23 617.145 2111.23 662.691C2111.23 708.237 2085.28 749 2033.36 749C1981.22 749 1955.03 708.237 1955.03 662.691C1955.03 617.145 1980.99 576.382 2033.36 576.382ZM2033.36 735.564C2077.08 735.564 2095.52 698.9 2095.52 662.691C2095.52 626.482 2076.85 589.818 2033.36 589.818C1989.41 589.818 1970.97 626.482 1970.97 662.691C1970.97 698.9 1989.41 735.564 2033.36 735.564Z" fill="black"/>
<path d="M2135.6 579.798H2153.13L2249.68 720.079H2250.13V579.798H2265.84V745.584H2248.31L2151.77 605.303H2151.31V745.584H2135.6V579.798Z" fill="black"/>
<path d="M874.823 217.937H966.131V438.378H1097.29V514.439H874.596L874.823 217.937Z" fill="black"/>
<path d="M1157.17 217.937H1248.48V514.439H1157.17V217.937Z" fill="black"/>
<path d="M1316.56 217.937H1409.92L1496.22 376.663H1497.13V217.937H1583.43V514.439H1494.62L1403.77 352.524H1402.86V514.439H1316.56V217.937Z" fill="black"/>
<path d="M1921.1 399.892C1921.1 482.557 1877.61 521.499 1786.08 521.499C1694.77 521.499 1650.6 482.557 1650.6 399.892V217.937H1741.9V379.396C1741.9 409.229 1741.45 447.487 1786.31 447.487C1829.57 447.487 1829.57 409.229 1829.57 379.396V217.937H1920.88V399.892H1921.1Z" fill="black"/>
<path d="M2066.38 356.623L1968.69 217.937H2075.94L2120.8 298.553L2164.74 217.937H2266.07L2171.12 357.534L2277 514.439H2167.02L2116.47 426.081L2064.1 514.439H1959.36L2066.38 356.623Z" fill="black"/>
<path d="M149.371 596.422V298.325H0V745.584H447.43V596.422H149.371Z" fill="black"/>
<path d="M745.262 0H0V223.63H149.143V149.846H596.346V596.422H521.888V745.584H745.262V0Z" fill="black"/>
</g>
<defs>
<clipPath id="clip0_864_85">
<rect width="2277" height="749" fill="white"/>
</clipPath>
</defs>
</svg>
